!!!!SEGMENT: pl-kk--kk-i-356--008_marenzio-luca--gabriel-angelus.krn
!!!cenid: 17xx:1952
!!!COM: Marenzio, Luca
!!!COM-rismid: pe30003955
!!!CDT: ~1553-1599/08/22
!!!CNT: Italian
!!!OTL: Gabriel Angelus
!!!PDT:
!!!AGN: Sacred
!!!SMS-siglum: PL-Kk
!!!SMS-shelfmark: Kk.I.356
!!!SMS-shelfwork: 008 W
!!!SMS-variant:
!!!SMS-altvar:
!!!NIFC-rismid: 1001142087
!!!URL-scan: http://repozytorium.nifc.pl/skany/pl-kk-nut--i-356
!!!ONB-nifc: UWAGA: tylko partia basu.
!!!key:
**kern	**text
*Iempty	*
*I"Baſso.	*
*I'B	*
*clefF4	*
*k[]	*
*C:	*
*M2/1	*
*met(C|)	*
=1-	=1-
!LO:TX:a:t=2da pars.	!
0r	.
=2-	=2-
1.G	Ga-
*2\right	*
2E\	-bri-
=3-	=3-
1G	-el
2.A\	an-
4A\	-ge-
=4-	=4-
!LO:TX:a:t=P:problem:kreska pseudotaktowa	!
1G	-lus
0r	.
=5-	=5-
.	.
1.D	Ga-
=6-	=6-
2BB/	-bri-
1D	-el
=7-	=7-
2.E\	an-
4E\	-ge-
2D\	-lus
2G\	lo-
=8-	=8-
2E\	-cu-
2F\	-tus
2G\	est
2G\	Ma-
=9-	=9-
1A	-ri-
1G	-a
=10-	=10-
0.G	di-
=11-	=11-
.	.
!LO:TX:a:t=P:problem: wymazana nuta 1E i literka "C."	!
1C	-cens
=12-	=12-
2r	.
1G	Ga-
!LO:PB:g=original	!
2E\	-bri-
=13-	=13-
1G	-el
2.A\	an-
4A\	-ge-
=14-	=14-
2G\	-lus
2C/	lo-
2AA/	-cu-
2BB/	-tus
=15-	=15-
2C/	est
2C/	Ma-
!LO:TX:t=P:problem:poprawka kopisty	!
[>2D/	-ri-
2D/]	.
=16-	=16-
1C	-ae
2E\	lo-
2C/	-cu-
=17-	=17-
2D\	-tus
2E\	est
2E\	Ma-
1F	-ri-
=18-	=18-
2E\	-ae
2A\	lo-
2F\	-cu-
=19-	=19-
2G\	-tus
2A\	est
2A\	Ma-
1B-X	-ri-
=20-	=20-
1A	-ae
0.D	di-
=21-	=21-
.	.
=22-	=22-
!LO:TX:a:t=P:problem:kreska pseudotaktowa	!
0AA	-cens
!LO:LB:g=original	!
=23-	=23-
1C	A-
1C	-ve
=24-	=24-
2.AA/	Gra-
4AA/	-ti-
2AA/	-a
=25-	=25-
1D	ple-
2GG/	-na
2.C/	Do-
=26-	=26-
4C/	-mi-
1C	-n(us)
1E	te-
=27-	=27-
0D	-cum
=28-	=28-
2.G\	be-
4G\	-ne-
2F\	-di-
=29-	=29-
2E\	-cta
!LO:TX:a:t=P:problem:kreska pseudotaktowa	!
1G	tu
!LO:TX:a:t=P:problem:kreska pseudotaktowa	!
!LO:TX:a:t=1	!
1r	.
=30-	=30-
2.G\	be-
4G\	-ne-
1F	-di-
=31-	=31-
2E\	-cta
1G	tu
=32-	=32-
2D/	in
1A	Mu-
1G	-li-
!LO:LB:g=original	!
=33-	=33-
2.F\	-e-
4E\	.
2D\	.
=34-	=34-
2D\	-ri-
!LO:TX:a:t=P:problem:kreska pseudotaktowa	!
1A	-bus
0r	.
=35-	=35-
.	.
2r	.
=36-	=36-
2.D/	be-
4D/	-ne-
1C	-di-
=37-	=37-
2BB/	-cta
1D	tu
1G	in
=38-	=38-
2C/	mu-
2D/	-li-
2.E\	-e-
=39-	=39-
4F\	.
2G\	.
2G\	-ri-
2C,</	-bus,
=40-	=40-
2.G\	be-
4G\	-ne-
2F\	-di-
1E	-cta
=41-	=41-
!LO:TX:a:t=P:problem:kreska pseudotaktowa	!
1D	tu
2r	.
=42-	=42-
2.G\	be-
!LO:SIC:v:t=custos F	!
4G\	-ne-
!LO:LB:g=original	!
2F\	-di-
2E\	-cta
=43-	=43-
1G	tu
2D\	in
2GG/	mu-
=44-	=44-
2.BB/	-li-
4C/	.
1D	-e-
=45-	=45-
1D	-ri-
!LO:TX:b:t=De ascensione Domini sequit	!
00GG;/	-bus.
==	==
*-	*-
!!!RDF**kern: > = above
!!!RDF**kern: < = below
!!!AIN: 1 empty
!!!ENC: Marta Lawrence
!!!END: 2021-02-23
!!!ENC: Marcin Jachim
!!!END: 2021-02-06
